vendor/shopware/storefront/Resources/app/storefront/dist/assets/icon/default/editor-list-numberd.svg

<svg xmlns="http://www.w3.org/2000/svg" width="12" height="12" viewBox="0 0 12 12">
  <path fill="#758CA3" fill-rule="evenodd" d="M8,1 L11,1 C11.5522847,1 12,1.44771525 12,2 C12,2.55228475 11.5522847,3 11,3 L8,3 C7.44771525,3 7,2.55228475 7,2 C7,1.44771525 7.44771525,1 8,1 Z M8,5 L11,5 C11.5522847,5 12,5.44771525 12,6 C12,6.55228475 11.5522847,7 11,7 L8,7 C7.44771525,7 7,6.55228475 7,6 C7,5.44771525 7.44771525,5 8,5 Z M10,9 L11,9 C11.5522847,9 12,9.44771525 12,10 C12,10.5522847 11.5522847,11 11,11 L10,11 C9.44771525,11 9,10.5522847 9,10 C9,9.44771525 9.44771525,9 10,9 Z M3,3.41421356 L2.70710678,3.70710678 C2.31658249,4.09763107 1.68341751,4.09763107 1.29289322,3.70710678 C0.902368927,3.31658249 0.902368927,2.68341751 1.29289322,2.29289322 L3.29289322,0.292893219 C3.92285808,-0.337071642 5,0.109095149 5,1 L5,10 L6,10 C6.55228475,10 7,10.4477153 7,11 C7,11.5522847 6.55228475,12 6,12 L2,12 C0.666666667,12 0.666666667,10 2,10 L3,10 L3,3.41421356 Z"/>
</svg>

<svg xmlns="http://www.w3.org/2000/svg" width="12" height="12" viewBox="0 0 12 12"><path fill="#758CA3" fill-rule="evenodd" d="M8 1h3c.5523 0 1 .4477 1 1s-.4477 1-1 1H8c-.5523 0-1-.4477-1-1s.4477-1 1-1zm0 4h3c.5523 0 1 .4477 1 1s-.4477 1-1 1H8c-.5523 0-1-.4477-1-1s.4477-1 1-1zm2 4h1c.5523 0 1 .4477 1 1s-.4477 1-1 1h-1c-.5523 0-1-.4477-1-1s.4477-1 1-1zM3 3.4142l-.2929.293c-.3905.3904-1.0237.3904-1.4142 0-.3905-.3906-.3905-1.0238 0-1.4143l2-2C3.9229-.3371 5 .109 5 1v9h1c.5523 0 1 .4477 1 1s-.4477 1-1 1H2c-1.3333 0-1.3333-2 0-2h1V3.4142z"/></svg>
